material/.icons/material/weather-hazy.svg

<svg xmlns="http://www.w3.org/2000/svg" viewBox="0 0 24 24"><path d="M12 2l2.39 3.42C13.65 5.15 12.84 5 12 5c-.84 0-1.65.15-2.39.42L12 2M3.34 7l4.16-.35A7.2 7.2 0 005.94 8.5c-.44.74-.69 1.5-.83 2.29L3.34 7m17.31 0l-1.77 3.79a7.023 7.023 0 00-2.38-4.15M14 15a1 1 0 00-1-1H3a1 1 0 00-1 1 1 1 0 001 1h10a1 1 0 001-1m8 0a1 1 0 00-1-1h-4a1 1 0 00-1 1 1 1 0 001 1h4a1 1 0 001-1m-12 4a1 1 0 001 1h9a1 1 0 001-1 1 1 0 00-1-1h-9a1 1 0 00-1 1m-7 0a1 1 0 001 1h3a1 1 0 001-1 1 1 0 00-1-1H4a1 1 0 00-1 1m9-10a3 3 0 013 3h2a5 5 0 00-5-5 5 5 0 00-5 5h2a3 3 0 013-3z"/></svg>

<?xml version="1.0" encoding="UTF-8"?><!DOCTYPE svg PUBLIC "-//W3C//DTD SVG 1.1//EN" "http://www.w3.org/Graphics/SVG/1.1/DTD/svg11.dtd"><svg xmlns="http://www.w3.org/2000/svg" xmlns:xlink="http://www.w3.org/1999/xlink" version="1.1" id="mdi-weather-hazy" width="24" height="24" viewBox="0 0 24 24"><path d="M12,2L14.39,5.42C13.65,5.15 12.84,5 12,5C11.16,5 10.35,5.15 9.61,5.42L12,2M3.34,7L7.5,6.65C6.9,7.16 6.36,7.78 5.94,8.5C5.5,9.24 5.25,10 5.11,10.79L3.34,7M20.65,7L18.88,10.79C18.74,10 18.47,9.23 18.05,8.5C17.63,7.78 17.1,7.15 16.5,6.64M14,15A1,1 0 0,0 13,14H3A1,1 0 0,0 2,15A1,1 0 0,0 3,16H13A1,1 0 0,0 14,15M22,15A1,1 0 0,0 21,14H17A1,1 0 0,0 16,15A1,1 0 0,0 17,16H21A1,1 0 0,0 22,15M10,19A1,1 0 0,0 11,20H20A1,1 0 0,0 21,19A1,1 0 0,0 20,18H11A1,1 0 0,0 10,19M3,19A1,1 0 0,0 4,20H7A1,1 0 0,0 8,19A1,1 0 0,0 7,18H4A1,1 0 0,0 3,19M12,9A3,3 0 0,1 15,12H17A5,5 0 0,0 12,7A5,5 0 0,0 7,12H9A3,3 0 0,1 12,9Z" /></svg>
